src/svg/device-mobile.svg

<svg height="16" width="10" xmlns="http://www.w3.org/2000/svg" viewBox="0 0 10 16">
  <path d="M9 0H1C0.45 0 0 0.45 0 1v14c0 0.55 0.45 1 1 1h8c0.55 0 1-0.45 1-1V1c0-0.55-0.45-1-1-1zM5 15.3c-0.72 0-1.3-0.58-1.3-1.3s0.58-1.3 1.3-1.3 1.3 0.58 1.3 1.3-0.58 1.3-1.3 1.3z m4-3.3H1V2h8v10z" />
</svg>

<?xml version="1.0" encoding="UTF-8" standalone="no"?>
<svg width="10px" height="16px" viewBox="0 0 10 16" version="1.1" xmlns="http://www.w3.org/2000/svg" xmlns:xlink="http://www.w3.org/1999/xlink">
    <!-- Generator: Sketch 3.7.1 (28215) - http://www.bohemiancoding.com/sketch -->
    <title>device-mobile</title>
    <desc>Created with Sketch.</desc>
    <defs></defs>
    <g id="Octicons" stroke="none" stroke-width="1" fill="none" fill-rule="evenodd">
        <g id="device-mobile" fill="#000000">
            <path d="M9,0 L1,0 C0.45,0 0,0.45 0,1 L0,15 C0,15.55 0.45,16 1,16 L9,16 C9.55,16 10,15.55 10,15 L10,1 C10,0.45 9.55,0 9,0 L9,0 Z M5,15.3 C4.28,15.3 3.7,14.72 3.7,14 C3.7,13.28 4.28,12.7 5,12.7 C5.72,12.7 6.3,13.28 6.3,14 C6.3,14.72 5.72,15.3 5,15.3 L5,15.3 Z M9,12 L1,12 L1,2 L9,2 L9,12 L9,12 Z" id="Shape"></path>
        </g>
    </g>
</svg>
